;FLAVOR:Marlin
;TIME:1019
;Filament used: 1.06876m
;Layer height: 0.28
;MINX:107.7
;MINY:107.7
;MINZ:0.28
;MAXX:127.3
;MAXY:127.3
;MAXZ:19.88
;Generated with Cura_SteamEngine 5.2.2
M140 S60
M105
M190 S60
M104 S210
M105
M109 S210
M82 ;absolute extrusion mode
; Ender 3 Custom Start G-code
G92 E0 ; Reset Extruder
G28 ; Home all axes
G1 Z2.0 F3000 ; Move Z Axis up little to prevent scratching of Heat Bed
G1 X0.1 Y20 Z0.3 F5000.0 ; Move to start position
G1 X0.1 Y200.0 Z0.3 F1500.0 E15 ; Draw the first line
G1 X0.4 Y200.0 Z0.3 F5000.0 ; Move to side a little
G1 X0.4 Y20 Z0.3 F1500.0 E30 ; Draw the second line
G92 E0 ; Reset Extruder
G1 Z2.0 F3000 ; Move Z Axis up little to prevent scratching of Heat Bed
G1 X5 Y20 Z0.3 F5000.0 ; Move over to prevent blob squish
G92 E0
G92 E0
G1 F2700 E-5
;LAYER_COUNT:71
;LAYER:0
M107
;MESH:cuo.stl
G0 F6000 X108.1 Y126.9 Z0.28
;TYPE:WALL-INNER
G1 F2700 E0
G1 F1200 X126.9 Y126.9 E0.87541
G1 X126.9 Y108.1 E1.75081
G1 X117.5 Y108.1 E2.18852
G1 X108.1 Y108.1 E2.62622
G1 X108.1 Y126.9 E3.50163
G0 F6000 X107.7 Y127.3
;TYPE:WALL-OUTER
G1 F1200 X127.3 Y127.3 E4.41429
G1 X127.3 Y107.7 E5.32694
G1 X117.5 Y107.7 E5.78327
G1 X107.7 Y107.7 E6.2396
G1 X107.7 Y127.3 E7.15226
G0 F6000 X107.97 Y127.03
G0 X108.2 Y126.54
G0 X108.46 Y126.54
;TYPE:SKIN
G1 F1200 X126.54 Y126.54 E7.99414
G1 X126.54 Y117.5 E8.41508
G1 X126.54 Y108.46 E8.83602
G1 X108.46 Y108.46 E9.6779
G1 X108.46 Y126.54 E10.51978
G0 F6000 X108.803 Y126.339
G1 F1200 X108.659 Y126.195 E10.52926
G0 F6000 X108.659 Y125.63
G1 F1200 X109.368 Y126.339 E10.57595
G0 F6000 X109.934 Y126.339
G1 F1200 X108.659 Y125.064 E10.65991
G0 F6000 X108.659 Y124.498
G1 F1200 X110.5 Y126.339 E10.78115
G0 F6000 X111.065 Y126.339
G1 F1200 X108.659 Y123.933 E10.93959
G0 F6000 X108.659 Y123.367
G1 F1200 X111.631 Y126.339 E11.1353
G0 F6000 X112.197 Y126.339
G1 F1200 X108.659 Y122.801 E11.36828
G0 F6000 X108.659 Y122.236
G1 F1200 X112.763 Y126.339 E11.6385
G0 F6000 X113.328 Y126.339
G1 F1200 X108.659 Y121.67 E11.94596
G0 F6000 X108.659 Y121.104
G1 F1200 X113.894 Y126.339 E12.2907
G0 F6000 X114.46 Y126.339
G1 F1200 X108.659 Y120.539 E12.67267
G0 F6000 X108.659 Y119.973
G1 F1200 X115.025 Y126.339 E13.09188
G0 F6000 X115.591 Y126.339
G1 F1200 X108.659 Y119.407 E13.54837
G0 F6000 X108.659 Y118.842
G1 F1200 X116.157 Y126.339 E14.04209
G0 F6000 X116.722 Y126.339
G1 F1200 X108.659 Y118.276 E14.57305
G0 F6000 X108.659 Y117.71
G1 F1200 X117.288 Y126.339 E15.14129
G0 F6000 X117.854 Y126.339
G1 F1200 X108.659 Y117.144 E15.74679
G0 F6000 X108.659 Y116.579
G1 F1200 X118.419 Y126.339 E16.38951
G0 F6000 X118.985 Y126.339
G1 F1200 X108.659 Y116.013 E17.06949
G0 F6000 X108.659 Y115.447
G1 F1200 X119.551 Y126.339 E17.78675
G0 F6000 X120.116 Y126.339
G1 F1200 X108.659 Y114.882 E18.54121
G0 F6000 X108.659 Y114.316
G1 F1200 X120.682 Y126.339 E19.33295
G0 F6000 X121.248 Y126.339
G1 F1200 X108.659 Y113.75 E20.16195
G0 F6000 X108.659 Y113.185
G1 F1200 X121.813 Y126.339 E21.02817
G0 F6000 X122.379 Y126.339
G1 F1200 X108.659 Y112.619 E21.93165
G0 F6000 X108.659 Y112.053
G1 F1200 X122.945 Y126.339 E22.87241
G0 F6000 X123.511 Y126.339
G1 F1200 X108.659 Y111.488 E23.85041
G0 F6000 X108.659 Y110.922
G1 F1200 X124.076 Y126.339 E24.86564
G0 F6000 X124.642 Y126.339
G1 F1200 X108.659 Y110.356 E25.91815
G0 F6000 X108.659 Y109.791
G1 F1200 X125.208 Y126.339 E27.0079
G0 F6000 X125.773 Y126.339
G1 F1200 X108.659 Y109.225 E28.13488
G0 F6000 X108.659 Y108.659
G1 F1200 X126.339 Y126.339 E29.29914
G0 F6000 X126.339 Y125.773
G1 F1200 X109.226 Y108.66 E30.42606
G0 F6000 X109.791 Y108.66
G1 F1200 X126.339 Y125.208 E31.51578
G0 F6000 X126.339 Y124.642
G1 F1200 X110.357 Y108.66 E32.56822
G0 F6000 X110.923 Y108.66
G1 F1200 X126.339 Y124.076 E33.58339
G0 F6000 X126.339 Y123.511
G1 F1200 X111.488 Y108.66 E34.56135
G0 F6000 X112.054 Y108.66
G1 F1200 X126.339 Y122.945 E35.50204
G0 F6000 X126.339 Y122.379
G1 F1200 X112.62 Y108.66 E36.40546
G0 F6000 X113.185 Y108.66
G1 F1200 X126.339 Y121.813 E37.27164
G0 F6000 X126.339 Y121.248
G1 F1200 X113.751 Y108.66 E38.10058
G0 F6000 X114.317 Y108.66
G1 F1200 X126.339 Y120.682 E38.89225
G0 F6000 X126.339 Y120.116
G1 F1200 X114.882 Y108.66 E39.64668
G0 F6000 X115.448 Y108.66
G1 F1200 X126.339 Y119.551 E40.36387
G0 F6000 X126.339 Y118.985
G1 F1200 X116.014 Y108.66 E41.04379
G0 F6000 X116.579 Y108.66
G1 F1200 X126.339 Y118.419 E41.68647
G0 F6000 X126.339 Y117.854
G1 F1200 X117.145 Y108.66 E42.29191
G0 F6000 X117.711 Y108.66
G1 F1200 X126.339 Y117.288 E42.86008
G0 F6000 X126.339 Y116.722
G1 F1200 X118.277 Y108.66 E43.39098
G0 F6000 X118.842 Y108.66
G1 F1200 X126.339 Y116.157 E43.88467
G0 F6000 X126.339 Y115.591
G1 F1200 X119.408 Y108.66 E44.34109
G0 F6000 X119.974 Y108.66
G1 F1200 X126.339 Y115.025 E44.76023
G0 F6000 X126.339 Y114.46
G1 F1200 X120.539 Y108.66 E45.14217
G0 F6000 X121.105 Y108.66
G1 F1200 X126.339 Y113.894 E45.48684
G0 F6000 X126.339 Y113.328
G1 F1200 X121.671 Y108.66 E45.79424
G0 F6000 X122.236 Y108.66
G1 F1200 X126.339 Y112.763 E46.06443
G0 F6000 X126.339 Y112.197
G1 F1200 X122.802 Y108.66 E46.29734
G0 F6000 X123.368 Y108.66
G1 F1200 X126.339 Y111.631 E46.49299
G0 F6000 X126.339 Y111.065
G1 F1200 X123.933 Y108.66 E46.6514
G0 F6000 X124.499 Y108.66
G1 F1200 X126.339 Y110.5 E46.77256
G0 F6000 X126.339 Y109.934
G1 F1200 X125.065 Y108.66 E46.85646
G0 F6000 X125.63 Y108.66
G1 F1200 X126.339 Y109.368 E46.90311
G0 F6000 X126.339 Y108.803
G1 F1200 X126.196 Y108.66 E46.91253
G1 F2700 E41.91253
;MESH:NONMESH
G0 F300 X126.196 Y108.66 Z0.56
G0 F6000 X126.196 Y108.2
G0 X108.272 Y108.272
G0 X108.1 Y126.9
;TIME_ELAPSED:60.583864
;LAYER:1
M106 S85
;TYPE:WALL-INNER
;MESH:cuo.stl
G1 F2700 E46.91253
G1 F1500 X126.9 Y126.9 E47.78794
G1 X126.9 Y117.5 E48.22564
G1 X126.9 Y108.1 E48.66334
G1 X108.1 Y108.1 E49.53875
G1 X108.1 Y126.9 E50.41416
G0 F7500 X107.7 Y127.3
;TYPE:WALL-OUTER
G1 F1500 X127.3 Y127.3 E51.32682
G1 X127.3 Y117.5 E51.78314
G1 X127.3 Y107.7 E52.23947
G1 X107.7 Y107.7 E53.15213
G1 X107.7 Y127.3 E54.06479
G0 F7500 X107.97 Y127.03
G0 X108.2 Y126.54
G0 X108.46 Y126.54
;TYPE:SKIN
G1 F1500 X126.54 Y126.54 E54.90667
G1 X126.54 Y108.46 E55.74855
G1 X108.46 Y108.46 E56.59043
G1 X108.46 Y117.5 E57.01137
G1 X108.46 Y126.54 E57.43231
G0 F7500 X108.2 Y126.54
G0 X108.2 Y109.128
G0 X108.66 Y109.128
G1 F1500 X109.129 Y108.659 E57.4632
G0 F7500 X109.694 Y108.659
G1 F1500 X108.66 Y109.694 E57.53132
G0 F7500 X108.66 Y110.259
G1 F1500 X110.26 Y108.659 E57.63668
G0 F7500 X110.826 Y108.659
G1 F1500 X108.66 Y110.825 E57.77932
G0 F7500 X108.66 Y111.391
G1 F1500 X111.391 Y108.659 E57.95919
G0 F7500 X111.957 Y108.659
G1 F1500 X108.66 Y111.956 E58.1763
G0 F7500 X108.66 Y112.522
G1 F1500 X112.523 Y108.659 E58.43069
G0 F7500 X113.089 Y108.659
G1 F1500 X108.66 Y113.088 E58.72235
G0 F7500 X108.66 Y113.653
G1 F1500 X113.654 Y108.659 E59.05121
G0 F7500 X114.22 Y108.659
G1 F1500 X108.66 Y114.219 E59.41735
G0 F7500 X108.66 Y114.785
G1 F1500 X114.786 Y108.659 E59.82075
G0 F7500 X115.351 Y108.659
G1 F1500 X108.66 Y115.351 E60.2614
G0 F7500 X108.66 Y115.916
G1 F1500 X115.917 Y108.659 E60.73929
G0 F7500 X116.483 Y108.659
G1 F1500 X108.66 Y116.482 E61.25444
G0 F7500 X108.66 Y117.048
G1 F1500 X117.048 Y108.659 E61.80684
G0 F7500 X117.614 Y108.659
G1 F1500 X108.66 Y117.613 E62.39648
G0 F7500 X108.66 Y118.179
G1 F1500 X118.18 Y108.659 E63.02339
G0 F7500 X118.745 Y108.659
G1 F1500 X108.66 Y118.745 E63.68753
G0 F7500 X108.66 Y119.31
G1 F1500 X119.311 Y108.659 E64.38892
G0 F7500 X119.877 Y108.659
G1 F1500 X108.66 Y119.876 E65.12758
G0 F7500 X108.66 Y120.442
G1 F1500 X120.442 Y108.659 E65.90348
G0 F7500 X121.008 Y108.659
G1 F1500 X108.66 Y121.007 E66.71661
G0 F7500 X108.66 Y121.573
G1 F1500 X121.574 Y108.659 E67.56702
G0 F7500 X122.139 Y108.659
G1 F1500 X108.66 Y122.139 E68.45467
G0 F7500 X108.66 Y122.704
G1 F1500 X122.705 Y108.659 E69.37956
G0 F7500 X123.271 Y108.659
G1 F1500 X108.66 Y123.27 E70.34172
G0 F7500 X108.66 Y123.836
G1 F1500 X123.837 Y108.659 E71.34115
G0 F7500 X124.402 Y108.659
G1 F1500 X108.66 Y124.402 E72.37782
G0 F7500 X108.66 Y124.967
G1 F1500 X124.968 Y108.659 E73.45173
G0 F7500 X125.534 Y108.659
G1 F1500 X108.66 Y125.533 E74.56291
G0 F7500 X108.66 Y126.099
G1 F1500 X126.099 Y108.659 E75.71133
G0 F7500 X126.339 Y108.985
G1 F1500 X108.985 Y126.339 E76.85412
G0 F7500 X109.551 Y126.339
G1 F1500 X126.339 Y109.551 E77.95964
G0 F7500 X126.339 Y110.117
G1 F1500 X110.117 Y126.339 E79.02789
G0 F7500 X110.682 Y126.339
G1 F1500 X126.339 Y110.682 E80.05893
G0 F7500 X126.339 Y111.248
G1 F1500 X111.248 Y126.339 E81.05269
G0 F7500 X111.814 Y126.339
G1 F1500 X126.339 Y111.814 E82.00919
G0 F7500 X126.339 Y112.379
G1 F1500 X112.379 Y126.339 E82.92848
G0 F7500 X112.945 Y126.339
G1 F1500 X126.339 Y112.945 E83.8105
G0 F7500 X126.339 Y113.511
G1 F1500 X113.511 Y126.339 E84.65524
G0 F7500 X114.076 Y126.339
G1 F1500 X126.339 Y114.076 E85.46278
G0 F7500 X126.339 Y114.642
G1 F1500 X114.642 Y126.339 E86.23305
G0 F7500 X115.208 Y126.339
G1 F1500 X126.339 Y115.208 E86.96605
G0 F7500 X126.339 Y115.773
G1 F1500 X115.773 Y126.339 E87.66183
G0 F7500 X116.339 Y126.339
G1 F1500 X126.339 Y116.339 E88.32035
G0 F7500 X126.339 Y116.905
G1 F1500 X116.905 Y126.339 E88.9416
G0 F7500 X117.47 Y126.339
G1 F1500 X126.339 Y117.47 E89.52564
G0 F7500 X126.339 Y118.036
G1 F1500 X118.036 Y126.339 E90.0724
G0 F7500 X118.602 Y126.339
G1 F1500 X126.339 Y118.602 E90.5819
G0 F7500 X126.339 Y119.167
G1 F1500 X119.167 Y126.339 E91.05419
G0 F7500 X119.733 Y126.339
G1 F1500 X126.339 Y119.733 E91.4892
G0 F7500 X126.339 Y120.299
G1 F1500 X120.299 Y126.339 E91.88695
G0 F7500 X120.865 Y126.339
G1 F1500 X126.339 Y120.865 E92.24742
G0 F7500 X126.339 Y121.43
G1 F1500 X121.43 Y126.339 E92.57068
G0 F7500 X121.996 Y126.339
G1 F1500 X126.339 Y121.996 E92.85668
G0 F7500 X126.339 Y122.562
G1 F1500 X122.562 Y126.339 E93.1054
G0 F7500 X123.127 Y126.339
G1 F1500 X126.339 Y123.127 E93.31692
G0 F7500 X126.339 Y123.693
G1 F1500 X123.693 Y126.339 E93.49116
G0 F7500 X124.259 Y126.339
G1 F1500 X126.339 Y124.259 E93.62813
G0 F7500 X126.339 Y124.824
G1 F1500 X124.824 Y126.339 E93.7279
G0 F7500 X125.39 Y126.339
G1 F1500 X126.339 Y125.39 E93.79039
G0 F7500 X126.339 Y125.956
G1 F1500 X125.956 Y126.339 E93.81561
;MESH:NONMESH
G0 F300 X125.956 Y126.339 Z0.84
G0 F7500 X125.956 Y126.8
G0 X108.1 Y126.9
;TIME_ELAPSED:107.282290
;LAYER:2
M106 S170
;TYPE:WALL-INNER
;MESH:cuo.stl
G1 F1382 X126.9 Y126.9 E94.69102
G1 X126.9 Y108.1 E95.56642
G1 X108.1 Y108.1 E96.44183
G1 X108.1 Y126.9 E97.31724
G0 F9000 X107.7 Y127.3
;TYPE:WALL-OUTER
G1 F1382 X127.3 Y127.3 E98.2299
G1 X127.3 Y107.7 E99.14255
G1 X107.7 Y107.7 E100.05521
G1 X107.7 Y127.3 E100.96787
G0 F9000 X107.97 Y127.03
G0 X114.388 Y126.6
G0 X114.388 Y126.82
;TYPE:FILL
G1 F2764 X119.383 Y108.178 E101.86654
G0 F9000 X120.332 Y108.18
G1 F2764 X126.819 Y114.667 E102.29372
G0 F9000 X126.818 Y115.616
G1 F2764 X108.179 Y120.61 E103.19224
G0 F9000 X108.4 Y120.61
G0 X108.4 Y119.08
G0 X108.179 Y119.08
G1 F2764 X111.101 Y108.178 E103.7178
G0 F9000 X111.101 Y108.4
G0 X109.018 Y108.4
G0 X109.018 Y108.18
G1 F2764 X126.819 Y125.98 E104.89
G0 F9000 X126.6 Y125.98
G0 X126.6 Y123.898
G0 X126.819 Y123.898
G1 F2764 X115.917 Y126.819 E105.41554
G0 F9000 X116.344 Y126.819
G1 F2764 X108.179 Y118.654 E105.95322
G0 F9000 X108.4 Y118.654
G0 X108.4 Y112.328
G0 X108.179 Y112.328
G1 F2764 X123.663 Y108.179 E106.69966
G0 F9000 X123.663 Y108.4
G0 X126.6 Y111.335
G0 X126.819 Y111.335
G1 F2764 X122.67 Y126.819 E107.44609
G0 F9000 X122.67 Y126.3
;MESH:NONMESH
G0 F300 X122.67 Y126.3 Z1.12
G0 F9000 X108.37 Y126.63
G0 X108.1 Y126.9
;TIME_ELAPSED:119.599734
;LAYER:3
M106 S255
;TYPE:WALL-INNER
;MESH:cuo.stl
G1 F1377.4 X126.9 Y126.9 E108.3215
G1 X126.9 Y117.5 E108.7592
G1 X126.9 Y108.1 E109.19691
G1 X108.1 Y108.1 E110.07231
G1 X108.1 Y126.9 E110.94772
G0 F9000 X107.7 Y127.3
;TYPE:WALL-OUTER
G1 F1377.4 X127.3 Y127.3 E111.86038
G1 X127.3 Y117.5 E112.31671
G1 X127.3 Y107.7 E112.77304
G1 X107.7 Y107.7 E113.6857
G1 X107.7 Y127.3 E114.59835
G0 F9000 X107.97 Y127.03
G0 X114.183 Y126.6
G0 X114.183 Y126.82
;TYPE:FILL
G1 F2754.8 X119.178 Y108.178 E115.49702
G0 F9000 X119.178 Y108.4
G0 X120.612 Y108.4
G0 X120.612 Y108.18
G1 F2754.8 X126.819 Y114.387 E115.90576
G0 F9000 X126.6 Y114.387
G0 X126.6 Y115.821
G0 X126.819 Y115.821
G1 F2754.8 X108.179 Y120.815 E116.80433
G0 F9000 X108.4 Y120.815
G0 X108.4 Y118.374
G0 X108.179 Y118.374
G1 F2754.8 X116.624 Y126.819 E117.36045
G1 X116.682 Y126.819
G1 X126.819 Y124.103 E117.84912
G0 F9000 X126.6 Y124.103
G0 X126.6 Y125.7
G0 X126.819 Y125.7
G1 F2754.8 X109.298 Y108.18 E119.00287
G0 F9000 X109.298 Y108.4
G0 X110.896 Y108.4
G0 X110.896 Y108.178
G1 F2754.8 X108.179 Y118.315 E119.49156
G0 F9000 X108.4 Y118.315
G0 X108.4 Y112.533
G0 X108.179 Y112.533
G1 F2754.8 X124.428 Y108.179 E120.27487
G0 F9000 X124.428 Y108.4
G0 X126.6 Y110.57
G0 X126.819 Y110.57
G1 F2754.8 X122.465 Y126.819 E121.05818
G0 F9000 X122.465 Y126.3
;MESH:NONMESH
G0 F300 X122.465 Y126.3 Z1.4
G0 F9000 X108.37 Y126.63
G0 X108.1 Y126.9
;TIME_ELAPSED:131.977410
;LAYER:4
;TYPE:WALL-INNER
;MESH:cuo.stl
G1 F1374.6 X126.9 Y126.9 E121.93359
G1 X126.9 Y108.1 E122.809
G1 X108.1 Y108.1 E123.6844
G1 X108.1 Y126.9 E124.55981
G0 F9000 X107.7 Y127.3
;TYPE:WALL-OUTER
G1 F1374.6 X127.3 Y127.3 E125.47247
G1 X127.3 Y107.7 E126.38513
G1 X107.7 Y107.7 E127.29778
G1 X107.7 Y127.3 E128.21044
G0 F9000 X107.97 Y127.03
G0 X113.978 Y126.6
G0 X113.978 Y126.82
;TYPE:FILL
G1 F2749.2 X118.973 Y108.178 E129.10911
G0 F9000 X118.973 Y108.4
G0 X120.892 Y108.4
G0 X120.892 Y108.18
G1 F2749.2 X126.819 Y114.107 E129.49942
G0 F9000 X126.6 Y114.107
G0 X126.6 Y116.026
G0 X126.819 Y116.026
G1 F2749.2 X108.179 Y121.02 E130.39798
G0 F9000 X108.4 Y121.02
G0 X108.4 Y118.094
G0 X108.179 Y118.094
G1 F2749.2 X116.904 Y126.819 E130.97254
G0 F9000 X117.447 Y126.819
G1 F2749.2 X126.818 Y124.308 E131.42429
G0 F9000 X126.6 Y124.308
G0 X126.6 Y125.42
G0 X126.819 Y125.42
G1 F2749.2 X109.578 Y108.18 E132.5596
G0 F9000 X109.578 Y108.4
G0 X110.69 Y108.4
G0 X110.69 Y108.179
G1 F2749.2 X108.179 Y117.55 E133.01135
G0 F9000 X108.4 Y117.55
G0 X108.4 Y112.738
G0 X108.179 Y112.738
G1 F2749.2 X125.192 Y108.179 E133.8315
G0 F9000 X125.192 Y108.4
G0 X126.6 Y109.806
G0 X126.819 Y109.806
G1 F2749.2 X122.26 Y126.819 E134.65164
G0 F9000 X122.26 Y126.3
;MESH:NONMESH
G0 F300 X122.26 Y126.3 Z1.68
G0 F9000 X108.37 Y126.63
G0 X108.1 Y126.9
;TIME_ELAPSED:144.375909
;LAYER:5
;TYPE:WALL-INNER
;MESH:cuo.stl
G1 F1371.6 X117.5 Y126.9 E135.08935
G1 X126.9 Y126.9 E135.52705
G1 X126.9 Y108.1 E136.40246
G1 X108.1 Y108.1 E137.27786
G1 X108.1 Y126.9 E138.15327
G0 F9000 X107.7 Y127.3
;TYPE:WALL-OUTER
G1 F1371.6 X117.5 Y127.3 E138.6096
G1 X127.3 Y127.3 E139.06593
G1 X127.3 Y107.7 E139.97859
G1 X107.7 Y107.7 E140.89124
G1 X107.7 Y127.3 E141.8039
G0 F9000 X107.97 Y127.03
G0 X113.773 Y126.6
G0 X113.773 Y126.819
;TYPE:FILL
G1 F2743.2 X118.768 Y108.178 E142.70253
G0 F9000 X118.768 Y108.4
G0 X121.172 Y108.4
G0 X121.172 Y108.18
G1 F2743.2 X126.819 Y113.827 E143.07439
G0 F9000 X126.6 Y113.827
G0 X126.6 Y116.231
G0 X126.819 Y116.231
G1 F2743.2 X108.179 Y121.225 E143.97296
G0 F9000 X108.4 Y121.225
G0 X108.4 Y117.814
G0 X108.179 Y117.814
G1 F2743.2 X117.184 Y126.819 E144.56595
G0 F9000 X117.184 Y126.6
G0 X118.211 Y126.6
G0 X118.211 Y126.819
G1 F2743.2 X126.818 Y124.513 E144.98087
G0 F9000 X126.819 Y125.14
G1 F2743.2 X109.858 Y108.18 E146.09774
G0 F9000 X110.485 Y108.178
G1 F2743.2 X108.179 Y116.786 E146.5127
G0 F9000 X108.4 Y116.786
G0 X108.4 Y112.943
G0 X108.18 Y112.943
G1 F2743.2 X125.957 Y108.179 E147.36968
G0 F9000 X125.957 Y108.4
G0 X126.6 Y109.041
G0 X126.819 Y109.041
G1 F2743.2 X122.055 Y126.819 E148.22671
G0 F9000 X122.055 Y126.3
;MESH:NONMESH
G0 F300 X122.055 Y126.3 Z1.96
G0 F9000 X108.37 Y126.63
G0 X108.1 Y126.9
;TIME_ELAPSED:156.708440
;LAYER:6
;TYPE:WALL-INNER
;MESH:cuo.stl
G1 F1369.8 X126.9 Y126.9 E149.10211
G1 X126.9 Y117.5 E149.53982
G1 X126.9 Y108.1 E149.97752
G1 X108.1 Y108.1 E150.85293
G1 X108.1 Y126.9 E151.72834
G0 F9000 X107.7 Y127.3
;TYPE:WALL-OUTER
G1 F1369.8 X127.3 Y127.3 E152.64099
G1 X127.3 Y117.5 E153.09732
G1 X127.3 Y107.7 E153.55365
